images/jador-20dior.svg

<svg fill="none" height="83" viewBox="0 0 100 83" width="100" xmlns="http://www.w3.org/2000/svg"><path clip-rule="evenodd" d="m60.5422 77.1851c.2998 2.6951 1.903 4.7925 3.8937 4.4405 1.9914-.3521 2.9904-2.2553 2.7492-5.3034-.2439-3.0978-1.7782-4.6466-3.8415-4.4591-2.1321.1938-3.1013 2.6253-2.8014 5.322zm-28.4218 4.2723h1.4878c5.5393 0 7.0257-.5133 8.9752-3.1031 1.9485-2.5898 2.1802-6.3078 2.1802-7.5643 0-1.2568-.3337-4.4111-2.2827-7.0776-1.9495-2.6677-5.2054-3.3595-8.0528-3.3595h-2.3194c-.5515 0-.5778.2439-.5778.6278v19.9891c0 .4364.1536.4876.5895.4876zm28.3165-45.6763c5.8864 0 9.6443 3.4991 9.6443 8.859s-3.9333 8.7745-9.3783 8.9173-9.7242-3.1269-9.7286-8.9173c-.0004-.5382.0396-1.0616.118-1.5673l-3.3131.0507-3.4819.1168v-1.5718c-1.6989 1.2914-4.0998 2.0694-6.2969 2.0694-2.1232 0-3.7886-.4021-5.3244-1.6163-1.0726-.848-1.9353-2.0233-2.473-3.3507-.4881-1.2046-.7012-2.5347-.7012-3.8595 0-4.8747 4.1959-8.8265 9.1477-8.8265 2.2821 0 4.1596.7307 5.6404 1.7893v-12.3436-11.81181c-.0435-.64198-.3173-1.28497-.8067-1.68147-.3861-.31296-.9423-.43724-1.3802-.53165-.993-.21412-1.5381-.2077-1.5381-.2077v-.571166l7.2302-.726804v2.93892h.001v30.66608l.0006 1.5224.0001.0818c.0003.1908.0004.3815.0003.5723v.0504.0314c.0008 1.3282.0019 2.4441.0034 3.053.0056.3012.0142.6023.0271.9035.0453.516.1419.8868.2293 1.1318.1368.352.4746.8299.7743 1.0425.5692.4034 1.5301.4584 2.1829.4901.0653.0032.1274.0064.1865.0096.8706-3.9663 4.2136-6.7127 9.2363-6.7127zm-7.1348 31.9806c.8173 0 1.4806-.6628 1.4806-1.4797 0-.8175-.6633-1.4802-1.4806-1.4802-.8169-.0001-1.4791.6627-1.4791 1.4802 0 .8168.6622 1.4797 1.4791 1.4797zm18.1604 5.7462c-.0179-.1088-.0172-.2024.5193-.3704.5373-.1668 1.8413-.6079 2.6348-1.0476.793-.4414.9245-.5026 1.1102-.3785.185.1219.1322.422.1322.6337v2.1493c.2906-.4759 1.2423-2.0618 1.9996-2.528.5942-.3689.8031-.3986 1.1718-.4055.442-.0077 1.4863.2636 1.5329 1.3657.0009.0215.0013.0429.0014.0637v.0224c-.0074.8-.6147 1.1211-1.006 1.0688-.3227-.045-.5578-.3447-.7483-.6442-.1939-.3031-.5024-.4843-.8106-.3789-.3084.1056-2.0359 1.2251-2.1326 2.8195-.0698 1.171 0 4.8285 0 4.8285.0001.5543.2118.7667.4591.9161.2461.1496 1.1534.1583 1.4083.1936.2563.035.2473.0965.2473.1756.0001.0791 0 .1153-.2288.1153h-6.0707c-.1939 0-.2727-.0362-.2727-.1504 0-.1601.2556-.1318.4488-.1581.1946-.0264 1.2198.0581 1.5151-.4588.2166-.3391.1885-.8826.1885-.8826l-.0287-6.4206c0-.5196-.1536-.5944-.2967-.6769-.144-.0818-.3818-.1253-.8848.0431-.472.1565-.7989.303-.8894.1052zm-21.2328.0016c-.0815-.1581.0688-.2605.5196-.3791.5023-.1319 1.6036-.4673 2.4756-.9609.8727-.4929 1.0223-.5456 1.2068-.4842.1854.0622.1682.3881.1682.6515v8.3091c0 .4662.0613.6605.2726.8539.2117.1934.7402.3091 1.4271.3091.3092 0 .4052.0346.4052.1669 0 .1326-.096.1326-.2206.1326h-6.0256c-.1849 0-.2289-.0799-.2289-.1589 0-.0968.081-.1588.3615-.1588.2372 0 1.3275.0822 1.5758-.4843.0961-.2169.142-.52.142-.802v-6.5898c0-.5021-.388-.7228-.8365-.6163-.5254.1223-1.1354.4186-1.2428.2112zm-27.1246 8.3838c.027-.1732.2719-.2045.5022-.2114 2.8201-.0795 3.3466-.1791 3.6676-.5129.1764-.1829.4359-.3338.4359-1.641v-17.976c0-1.616-1.9627-1.3588-3.3465-1.5004-.4857-.0497-.5267-.1155-.5267-.2561 0-.1405.0928-.2091.3445-.2182h11.3692c12.4827.0034 13.1227 9.1295 13.1227 11.565 0 5.2323-3.4618 10.9885-10.6935 10.9885h-14.5148c-.1665 0-.3381-.0217-.3606-.1704zm39.41-10.5056c2.5684-.4805 6.2207.0878 7.0492 4.105.8286 4.0183-1.9365 6.1575-4.3349 6.6796-2.3449.508-6.3271.1452-7.0484-4.1765-.6475-3.8807 2.1678-6.2026 4.3341-6.6081zm-55.45962-64.38561c1.28696 0 2.33027 1.10271 2.33027 2.46297 0 1.36034-1.04331 2.46304-2.33027 2.46304-1.28697 0-2.33028-1.1027-2.33028-2.46304 0-1.36026 1.04331-2.46297 2.33028-2.46297zm-7.170714 63.09341.552911.6853s3.964683-2.8218 5.597583-4.8208c1.63288-1.9989 2.7197-3.762 3.03124-5.8025.31154-2.0404.18685-6.3239.18685-8.4578s-.00023-31.5883-.00023-31.5883l-6.74454.4672v.6386c0-.0717 1.57524.0175 2.28163.7239.71079.7108.97371 2.1451.97371 3.9801v32.1959s-.28182 3.4733-.73218 5.0933c-.45036 1.6199-2.3209 4.2991-3.419 5.3349-1.098117 1.0359-1.727974 1.5502-1.727974 1.5502zm13.012234-48.6105s1.1552-.8827 1.7458-1.1228c.5905-.2402 1.337-.3504 1.7913-.1233s1.1747.8306 1.2266 1.6419-.1362 1.6744-.7269 2.4142c-1.1624 1.4562-2.292 2.1316-3.7708 3.1608l-.305-.3051s.9345-.8632 1.298-1.3694.8565-1.337.9344-2.0834c.0779-.7463.039-1.0708-.1686-1.5251-.2077-.4544-.5258-.7139-.5258-.7139s-.185-.2109-.5322-.0195c-.3472.1915-.5062.2207-.6588.2174-.1525-.0032-.308-.1718-.308-.1718zm6.6699 31.9917c-2.8561-.0065-3.826-1.5544-3.9558-1.6972-.1298-.1427-1.2918-1.4149-.8375-3.8551s3.0502-3.271 4.1665-3.6085 4.0108-.7142 4.9972-.7531c.9865-.0389 2.2035-.0519 2.2035-.0519v-3.5435s-.1203-1.6096-.9121-2.2327-1.311-.928-2.278-.967c-.9671-.039-1.7848.3374-2.2521 1.2719-.4673.9346-.6296 2.4793-.6296 2.4793l-3.6734-.649s.6491-1.9989 1.3889-2.648c.7398-.649 1.5833-1.2592 3.5953-1.4019 2.0119-.1428 4.1927.0649 5.1921.5581.9995.4933 1.7393 1.0644 2.0509 1.5966.3115.5322.7917 1.35.8047 2.8946s0 8.1904 0 8.1904.1234 1.3953.9152 1.7068c.7918.3116 1.59.2857 2.1417-.0843.5516-.3699 1.5901-1.2136 1.5901-1.2136l.5061.5062s-1.8171 1.8757-2.1676 2.1482c-.3504.2726-1.8691 1.4499-2.8167 1.3545-.9476-.0953-1.5446-.5691-2.2585-1.2895-.714-.7204-1.2462-1.2851-1.2462-1.2851-1.3222.801-3.7123 2.5801-6.5247 2.5738zm6.4484-8.2162v4.4153s-2.2325 1.7501-4.4002 1.5814c-2.1678-.1687-3.2321-1.2461-3.2321-2.7648 0-.734.2725-1.7176 1.0274-2.4208.8069-.7516 2.1411-1.1994 3.5091-1.2007 2.6478-.0025 3.0958.392 3.0958.3896zm44.3744-15.9711 6.406-.9865v2.5256s2.7131-2.0897 3.4097-2.5256c.6967-.4359 1.8606-.9919 2.9315-.8881 1.0708.1039 1.908.5776 2.4662 1.3564.5581.7788.5971 2.2456.5971 2.2456l-3.55 1.8886c.3691-1.2836.308-2.2529-.2181-2.7382-.6485-.5982-1.3557-.7684-2.7869-.0006-1.0642.571-2.8495 2.5701-2.8495 2.5701v7.5012.0663.0645.5617c.0014.8529.0143 1.1295.1129 1.6477.2268 1.1922.9559 1.8913 3.2968 2.0537v.5841s-3.1857-.1614-5.1531-.1817c-1.9674-.0204-3.3714-.0158-4.7897.2011v-.5638s.5452-.1112 1.0515-.228c.5062-.1168.5257-.0843 1.3304-.5776.6036-.37.7093-1.2254.7244-1.63v-.2197-10.65c-.4179-1.645-1.6021-1.4507-2.9792-1.5594zm21.2806 6.4964c2.6411 0 5.0146 1.1012 6.4448 2.9166 1.0261 1.3026 1.4251 3.0045 1.7471 4.7848.003.0162.008.0322.015.0479h-6.4191-.1661-.1652-.164-.1629-.1617-.1605-.1591-.1579-.1565-.1549-.1535-.152-.1504-.1488-.147-.1453-.1435-.1416-.1398-.1378-.1359-.1337-.1316-.1296-.1273-.1251-.1227-.1205-.118-.1156-.113-.1105-.1079-.1053-.1026-.0997-.0971-.0941-.0912-.0882-.0853-.0822-.0791-.0759-.0727-.0695-.0661-.0628-.0594-.0559-.0523-.0489-.0452-.0415-.0378-.0341-.0302-.0264-.0224-.0185-.0145-.0104-.0063-.0021c0 1.1157.2099 3.7893 1.5799 5.6232 1.0187 1.3637 2.952 2.1358 4.4683 2.1358 2.4864 0 4.8339-1.1205 6.0208-2.4597h.0416l.7537.7537c-2.37 2.6164-5.0565 3.9554-8.2106 3.9554-4.9967 0-8.2814-4.0277-8.2814-8.9239s3.2809-8.8338 8.2775-8.8338zm-.2175 1.3466c.9868 0 2.2918.2539 3.0877 1.2991.7882 1.0351 1.0724 2.8576 1.0724 3.7373h-8.5215c0-.934.3964-2.5593 1.317-3.6276.8222-.954 2.1178-1.4088 3.0444-1.4088zm-47.1629 2.3564c-.0134.0193-.0268.0386-.0405.0577-1.3015 1.829-3.6382 2.7761-5.5368 2.7761-1.2866 0-2.4393-.5005-3.3151-1.3479-1.4066-1.3608-2.1716-3.6164-2.1716-6.131 0-3.3849 1.5397-7.5989 5.6423-7.5347 2.6639.0417 4.5111 1.619 5.4217 3.2551zm15.3479-2.3068c1.1186 0 2.9501.4806 4.13 1.6579 1.5766 1.5735 2.3671 4.1775 2.3671 6.4826 0 2.3755-.8399 4.5448-2.0647 5.7549-.8529.8428-1.8927 1.1136-2.9656 1.1136-1.3596 0-3.1548-.6792-4.4022-2.2469-1.15-1.4454-1.8093-3.7009-1.8093-5.634 0-2.6161.8302-4.9079 2.1753-6.1459.727-.669 1.6526-.9822 2.5694-.9822z" fill="#fff" fill-rule="evenodd"/></svg>

<svg width="100" height="83" viewBox="0 0 100 83" fill="none" xmlns="http://www.w3.org/2000/svg">
<path fill-rule="evenodd" clip-rule="evenodd" d="M60.5422 77.1851C60.842 79.8802 62.4452 81.9776 64.4359 81.6256C66.4273 81.2735 67.4263 79.3703 67.1851 76.3222C66.9412 73.2244 65.4069 71.6756 63.3436 71.8631C61.2115 72.0569 60.2423 74.4884 60.5422 77.1851ZM32.1204 81.4574H33.6082C39.1475 81.4574 40.6339 80.9441 42.5834 78.3543C44.5319 75.7645 44.7636 72.0465 44.7636 70.79C44.7636 69.5332 44.4299 66.3789 42.4809 63.7124C40.5314 61.0447 37.2755 60.3529 34.4281 60.3529H32.1087C31.5572 60.3529 31.5309 60.5968 31.5309 60.9807V80.9698C31.5309 81.4062 31.6845 81.4574 32.1204 81.4574ZM60.4369 35.7811C66.3233 35.7811 70.0812 39.2802 70.0812 44.6401C70.0812 50 66.1479 53.4146 60.7029 53.5574C55.2579 53.7002 50.9787 50.4305 50.9743 44.6401C50.9739 44.1019 51.0139 43.5785 51.0923 43.0728L47.7792 43.1235L44.2973 43.2403V41.6685C42.5984 42.9599 40.1975 43.7379 38.0004 43.7379C35.8772 43.7379 34.2118 43.3358 32.676 42.1216C31.6034 41.2736 30.7407 40.0983 30.203 38.7709C29.7149 37.5663 29.5018 36.2362 29.5018 34.9114C29.5018 30.0367 33.6977 26.0849 38.6495 26.0849C40.9316 26.0849 42.8091 26.8156 44.2899 27.8742V15.5306V3.71879C44.2464 3.07681 43.9726 2.43382 43.4832 2.03732C43.0971 1.72436 42.5409 1.60008 42.103 1.50567C41.11 1.29155 40.5649 1.29797 40.5649 1.29797V0.726804L47.7951 0V2.93892H47.7961V33.605L47.7967 35.1274L47.7968 35.2092C47.7971 35.4 47.7972 35.5907 47.7971 35.7815V35.8319V35.8633C47.7979 37.1915 47.799 38.3074 47.8005 38.9163C47.8061 39.2175 47.8147 39.5186 47.8276 39.8198C47.8729 40.3358 47.9695 40.7066 48.0569 40.9516C48.1937 41.3036 48.5315 41.7815 48.8312 41.9941C49.4004 42.3975 50.3613 42.4525 51.0141 42.4842C51.0794 42.4874 51.1415 42.4906 51.2006 42.4938C52.0712 38.5275 55.4142 35.7811 60.4369 35.7811ZM53.3021 67.7617C54.1194 67.7617 54.7827 67.0989 54.7827 66.282C54.7827 65.4645 54.1194 64.8018 53.3021 64.8018C52.4852 64.8017 51.823 65.4645 51.823 66.282C51.823 67.0988 52.4852 67.7617 53.3021 67.7617ZM71.4625 73.5079C71.4446 73.3991 71.4453 73.3055 71.9818 73.1375C72.5191 72.9707 73.8231 72.5296 74.6166 72.0899C75.4096 71.6485 75.5411 71.5873 75.7268 71.7114C75.9118 71.8333 75.859 72.1334 75.859 72.3451V74.4944C76.1496 74.0185 77.1013 72.4326 77.8586 71.9664C78.4528 71.5975 78.6617 71.5678 79.0304 71.5609C79.4724 71.5532 80.5167 71.8245 80.5633 72.9266C80.5642 72.9481 80.5646 72.9695 80.5647 72.9903V73.0127C80.5573 73.8127 79.95 74.1338 79.5587 74.0815C79.236 74.0365 79.0009 73.7368 78.8104 73.4373C78.6165 73.1342 78.308 72.953 77.9998 73.0584C77.6914 73.164 75.9639 74.2835 75.8672 75.8779C75.7974 77.0489 75.8672 80.7064 75.8672 80.7064C75.8673 81.2607 76.079 81.4731 76.3263 81.6225C76.5724 81.7721 77.4797 81.7808 77.7346 81.8161C77.9909 81.8511 77.9819 81.9126 77.9819 81.9917C77.982 82.0708 77.9819 82.107 77.7531 82.107H71.6824C71.4885 82.107 71.4097 82.0708 71.4097 81.9566C71.4097 81.7965 71.6653 81.8248 71.8585 81.7985C72.0531 81.7721 73.0783 81.8566 73.3736 81.3397C73.5902 81.0006 73.5621 80.4571 73.5621 80.4571L73.5334 74.0365C73.5334 73.5169 73.3798 73.4421 73.2367 73.3596C73.0927 73.2778 72.8549 73.2343 72.3519 73.4027C71.8799 73.5592 71.553 73.7057 71.4625 73.5079ZM50.2297 73.5095C50.1482 73.3514 50.2985 73.249 50.7493 73.1304C51.2516 72.9985 52.3529 72.6631 53.2249 72.1695C54.0976 71.6766 54.2472 71.6239 54.4317 71.6853C54.6171 71.7475 54.5999 72.0734 54.5999 72.3368V80.6459C54.5999 81.1121 54.6612 81.3064 54.8725 81.4998C55.0842 81.6932 55.6127 81.8089 56.2996 81.8089C56.6088 81.8089 56.7048 81.8435 56.7048 81.9758C56.7048 82.1084 56.6088 82.1084 56.4842 82.1084H50.4586C50.2737 82.1084 50.2297 82.0285 50.2297 81.9495C50.2297 81.8527 50.3107 81.7907 50.5912 81.7907C50.8284 81.7907 51.9187 81.8729 52.167 81.3064C52.2631 81.0895 52.309 80.7864 52.309 80.5044V73.9146C52.309 73.4125 51.921 73.1918 51.4725 73.2983C50.9471 73.4206 50.3371 73.7169 50.2297 73.5095ZM23.1051 81.8933C23.1321 81.7201 23.377 81.6888 23.6073 81.6819C26.4274 81.6024 26.9539 81.5028 27.2749 81.169C27.4513 80.9861 27.7108 80.8352 27.7108 79.528V61.552C27.7108 59.936 25.7481 60.1932 24.3643 60.0516C23.8786 60.0019 23.8376 59.9361 23.8376 59.7955C23.8376 59.655 23.9304 59.5864 24.1821 59.5773H35.5513C48.034 59.5807 48.674 68.7068 48.674 71.1423C48.674 76.3746 45.2122 82.1308 37.9805 82.1308H23.4657C23.2992 82.1308 23.1276 82.1091 23.1051 81.9604V81.8933ZM62.5151 71.3877C65.0835 70.9072 68.7358 71.4755 69.5643 75.4927C70.3929 79.511 67.6278 81.6502 65.2294 82.1723C62.8845 82.6803 58.9023 82.3175 58.181 77.9958C57.5335 74.1151 60.3488 71.7932 62.5151 71.3877ZM7.05548 7.00209C8.34244 7.00209 9.38575 8.1048 9.38575 9.46506C9.38575 10.8254 8.34244 11.9281 7.05548 11.9281C5.76851 11.9281 4.7252 10.8254 4.7252 9.46506C4.7252 8.1048 5.76851 7.00209 7.05548 7.00209ZM-0.115234 70.0955L0.437677 70.7808C0.437677 70.7808 4.40236 67.959 6.03526 65.96C7.66814 63.9611 8.75496 62.198 9.0665 60.1575C9.37804 58.1171 9.25335 53.8336 9.25335 51.6997C9.25335 49.5658 9.25312 20.1114 9.25312 20.1114L2.50858 20.5786V21.2172C2.50858 21.1455 4.08382 21.2347 4.79021 21.9411C5.501 22.6519 5.76392 24.0862 5.76392 25.9212C5.76392 28.6626 5.76392 58.1171 5.76392 58.1171C5.76392 58.1171 5.4821 61.5904 5.03174 63.2104C4.58138 64.8303 2.71084 67.5095 1.61274 68.5453C0.514623 69.5812 -0.115234 70.0955 -0.115234 70.0955ZM12.897 21.485C12.897 21.485 14.0522 20.6023 14.6428 20.3622C15.2333 20.122 15.9798 20.0118 16.4341 20.2389C16.8884 20.466 17.6088 21.0695 17.6607 21.8808C17.7126 22.6921 17.5245 23.5552 16.9338 24.295C15.7714 25.7512 14.6418 26.4266 13.163 27.4558L12.858 27.1507C12.858 27.1507 13.7925 26.2875 14.156 25.7813C14.5195 25.2751 15.0125 24.4443 15.0904 23.6979C15.1683 22.9516 15.1294 22.6271 14.9218 22.1728C14.7141 21.7184 14.396 21.4589 14.396 21.4589C14.396 21.4589 14.211 21.248 13.8638 21.4394C13.5166 21.6309 13.3576 21.6601 13.205 21.6568C13.0525 21.6536 12.897 21.485 12.897 21.485ZM19.5669 53.4767C16.7108 53.4702 15.7409 51.9223 15.6111 51.7795C15.4813 51.6368 14.3193 50.3646 14.7736 47.9244C15.2279 45.4842 17.8238 44.6534 18.9401 44.3159C20.0564 43.9784 22.9509 43.6017 23.9373 43.5628C24.9238 43.5239 26.1408 43.5109 26.1408 43.5109V39.9674C26.1408 39.9674 26.0205 38.3578 25.2287 37.7347C24.4369 37.1116 23.9177 36.8067 22.9507 36.7677C21.9836 36.7287 21.1659 37.1051 20.6986 38.0396C20.2313 38.9742 20.069 40.5189 20.069 40.5189L16.3956 39.8699C16.3956 39.8699 17.0447 37.871 17.7845 37.2219C18.5243 36.5729 19.3678 35.9627 21.3798 35.82C23.3917 35.6772 25.5725 35.8849 26.5719 36.3781C27.5714 36.8714 28.3112 37.4425 28.6228 37.9747C28.9343 38.5069 29.4145 39.3247 29.4275 40.8693C29.4405 42.4139 29.4275 49.0597 29.4275 49.0597C29.4275 49.0597 29.5509 50.455 30.3427 50.7665C31.1345 51.0781 31.9327 51.0522 32.4844 50.6822C33.036 50.3123 34.0745 49.4686 34.0745 49.4686L34.5806 49.9748C34.5806 49.9748 32.7635 51.8505 32.413 52.123C32.0626 52.3956 30.5439 53.5729 29.5963 53.4775C28.6487 53.3822 28.0517 52.9084 27.3378 52.188C26.6238 51.4676 26.0916 50.9029 26.0916 50.9029C24.7694 51.7039 22.3793 53.483 19.5669 53.4767ZM26.0153 45.2605V49.6758C26.0153 49.6758 23.7828 51.4259 21.6151 51.2572C19.4473 51.0885 18.383 50.0111 18.383 48.4924C18.383 47.7584 18.6555 46.7748 19.4104 46.0716C20.2173 45.32 21.5515 44.8722 22.9195 44.8709C25.5673 44.8684 26.0153 45.2629 26.0153 45.2605ZM70.3897 29.2894L76.7957 28.3029V30.8285C76.7957 30.8285 79.5088 28.7388 80.2054 28.3029C80.9021 27.867 82.066 27.311 83.1369 27.4148C84.2077 27.5187 85.0449 27.9924 85.6031 28.7712C86.1612 29.55 86.2002 31.0168 86.2002 31.0168L82.6502 32.9054C83.0193 31.6218 82.9582 30.6525 82.4321 30.1672C81.7836 29.569 81.0764 29.3988 79.6452 30.1666C78.581 30.7376 76.7957 32.7367 76.7957 32.7367V40.2379V40.3042V40.3687V40.9304C76.7971 41.7833 76.81 42.0599 76.9086 42.5781C77.1354 43.7703 77.8645 44.4694 80.2054 44.6318C80.2054 44.8265 80.2054 45.0212 80.2054 45.2159C80.2054 45.2159 77.0197 45.0545 75.0523 45.0342C73.0849 45.0138 71.6809 45.0184 70.2626 45.2353V44.6715C70.2626 44.6715 70.8078 44.5603 71.3141 44.4435C71.8203 44.3267 71.8398 44.3592 72.6445 43.8659C73.2481 43.4959 73.3538 42.6405 73.3689 42.2359V42.0162V31.3662C72.951 29.7212 71.7668 29.9155 70.3897 29.8068V29.2894ZM91.6703 35.7858C94.3114 35.7858 96.6849 36.887 98.1151 38.7024C99.1412 40.005 99.5402 41.7069 99.8622 43.4872C99.8652 43.5034 99.8702 43.5194 99.8772 43.5351H93.4581H93.292H93.1268H92.9628H92.7999H92.6382H92.4777H92.3186H92.1607H92.0042H91.8493H91.6958H91.5438H91.3934H91.2446H91.0976H90.9523H90.8088H90.6672H90.5274H90.3896H90.2537H90.12H89.9884H89.8588H89.7315H89.6064H89.4837H89.3632H89.2452H89.1296H89.0166H88.9061H88.7982H88.6929H88.5903H88.4906H88.3935H88.2994H88.2082H88.12H88.0347H87.9525H87.8734H87.7975H87.7248H87.6553H87.5892H87.5264H87.467H87.4111H87.3588H87.3099H87.2647H87.2232H87.1854H87.1513H87.1211H87.0947H87.0723H87.0538H87.0393H87.0289H87.0226H87.0205C87.0205 44.6508 87.2304 47.3244 88.6004 49.1583C89.6191 50.522 91.5524 51.2941 93.0687 51.2941C95.5551 51.2941 97.9026 50.1736 99.0895 48.8344H99.1311L99.8848 49.5881C97.5148 52.2045 94.8283 53.5435 91.6742 53.5435C86.6775 53.5435 83.3928 49.5158 83.3928 44.6196C83.3928 39.7234 86.6737 35.7858 91.6703 35.7858ZM91.4528 37.1324C92.4396 37.1324 93.7446 37.3863 94.5405 38.4315C95.3287 39.4666 95.6129 41.2891 95.6129 42.1688H87.0914C87.0914 41.2348 87.4878 39.6095 88.4084 38.5412C89.2306 37.5872 90.5262 37.1324 91.4528 37.1324ZM44.2899 39.4888C44.2765 39.5081 44.2631 39.5274 44.2494 39.5465C42.9479 41.3755 40.6112 42.3226 38.7126 42.3226C37.426 42.3226 36.2733 41.8221 35.3975 40.9747C33.9909 39.6139 33.2259 37.3583 33.2259 34.8437C33.2259 31.4588 34.7656 27.2448 38.8682 27.309C41.5321 27.3507 43.3793 28.928 44.2899 30.5641V39.4888ZM59.6378 37.182C60.7564 37.182 62.5879 37.6626 63.7678 38.8399C65.3444 40.4134 66.1349 43.0174 66.1349 45.3225C66.1349 47.698 65.295 49.8673 64.0702 51.0774C63.2173 51.9202 62.1775 52.191 61.1046 52.191C59.745 52.191 57.9498 51.5118 56.7024 49.9441C55.5524 48.4987 54.8931 46.2432 54.8931 44.3101C54.8931 41.694 55.7233 39.4022 57.0684 38.1642C57.7954 37.4952 58.721 37.182 59.6378 37.182Z" fill="white"/>
</svg>
